src/assets/tabbar/icon-account-active.svg

<?xml version="1.0" encoding="UTF-8" standalone="no"?>
<svg width="28px" height="28px" viewBox="0 0 28 28" version="1.1" xmlns="http://www.w3.org/2000/svg" xmlns:xlink="http://www.w3.org/1999/xlink">
    <!-- Generator: Sketch 43.2 (39069) - http://www.bohemiancoding.com/sketch -->
    <title>bounds</title>
    <desc>Created with Sketch.</desc>
    <defs></defs>
    <g id="Page-1" stroke="none" stroke-width="1" fill="none" fill-rule="evenodd">
        <g id="account-a">
            <rect id="bounds" fill="#FFFFFF" opacity="0" x="0" y="0" width="28" height="28"></rect>
            <path d="M18.9438667,20.1176827 C18.9438667,17.1519152 16.4817508,14.7399167 13.4563199,14.7399167 C10.4308891,14.7399167 7.96996667,17.1519152 7.96996667,20.1176827 C7.96996667,20.4470799 8.2361091,20.7144167 8.56669859,20.7144167 C8.89609461,20.7144167 9.16343051,20.4470799 9.16343051,20.1176827 C9.16343051,17.8095159 11.0884877,15.9333845 13.4563199,15.9333845 C15.8241522,15.9333845 17.7504028,17.8095159 17.7504028,20.1176827 C17.7504028,20.4470799 18.0177387,20.7144167 18.3471347,20.7144167 C18.6765308,20.7144167 18.9438667,20.4470799 18.9438667,20.1176827 M10.5060667,10.3778083 C10.5060667,12.0737435 11.9107829,13.4546 13.6377366,13.4546 C15.3646903,13.4546 16.7706,12.0737435 16.7706,10.3778083 C16.7706,8.68067965 15.3646903,7.30101667 13.6377366,7.30101667 C11.9107829,7.30101667 10.5060667,8.68067965 10.5060667,10.3778083 M28,7.72111228 L28,19.9410547 C27.7541452,21.4352795 26.5666425,22.4855333 25.2299561,22.4855333 L2.77123737,22.4855333 C1.43335749,22.4855333 0,21.3911211 0,19.7644211 L0,7.72111228 C0,6.40710148 1.11350752,5 2.77123737,5 L25.2299561,5 C26.567836,5 28,6.09321879 28,7.72111228 M11.6995667,10.3778083 C11.6995667,9.33949163 12.5684015,8.49451667 13.6377366,8.49451667 C14.7070717,8.49451667 15.5771,9.33949163 15.5771,10.3778083 C15.5771,11.416125 14.7070717,12.2611 13.6377366,12.2611 C12.5684015,12.2611 11.6995667,11.416125 11.6995667,10.3778083" id="signed_in" fill="#00A862"></path>
        </g>
    </g>
</svg>

<svg width="28" height="28" xmlns="http://www.w3.org/2000/svg"><path d="M18.944 20.118c0-2.966-2.462-5.378-5.488-5.378-3.025 0-5.486 2.412-5.486 5.378a.596.596 0 101.193 0c0-2.308 1.925-4.185 4.293-4.185 2.368 0 4.294 1.877 4.294 4.185a.597.597 0 001.194 0m-8.438-9.74c0 1.696 1.405 3.077 3.132 3.077s3.133-1.381 3.133-3.077c0-1.697-1.406-3.077-3.133-3.077s-3.132 1.38-3.132 3.077M28 7.72v12.22c-.246 1.494-1.433 2.545-2.77 2.545H2.771C1.433 22.486 0 21.39 0 19.764V7.721C0 6.407 1.114 5 2.771 5H25.23C26.568 5 28 6.093 28 7.721m-16.3 2.657c0-1.039.868-1.883 1.938-1.883 1.07 0 1.94.844 1.94 1.883 0 1.038-.87 1.883-1.94 1.883-1.07 0-1.938-.845-1.938-1.883" fill="#00A862" fill-rule="evenodd"/></svg>
